proprietary/assets/icons/op-kantoor/ringband-met-silhouet.svg

<svg height="64" viewBox="0 0 64 64" width="64" xmlns="http://www.w3.org/2000/svg"><path d="m0 0h64v64h-64z" fill="none"/><path d="m54 7h-39c-1.1045 0-2 .8955-2 2v5.4166l7.1328 2.214c.3252.105.2061.3694.2061.3694-.032 0-4.3389.0015-7.3389.0015-1.2578.0145-3.3467.057-4.1211.1826-.665.1089-1.8789.2265-1.8789 1.1958v2.8555c0 .9687 1.228 1.1762 1.8936 1.2841.7733.1255 2.8526.2995 4.1064.3982v5.4989l7.125 2.2084c.3252.105.2139.375.2139.375-.032 0-4.3389.0015-7.3389.0015-1.2578.0145-3.3467.057-4.1211.1826-.665.1089-1.8789.2265-1.8789 1.1958v2.8555c0 .9687 1.228 1.1762 1.8936 1.2841.7733.1255 2.8526.2995 4.1064.3982v5.5121l7.125 2.203c.3252.105.2139.3672.2139.3672-.0116 0-4.3389.0015-7.3389.0015-1.2578.0145-3.3467.057-4.1211.1826-.665.1089-1.8789.2265-1.8789 1.1958v2.8555c0 .9687 1.228 1.1762 1.8936 1.2841.7733.1255 2.8526.2995 4.1064.3982v6.0823c0 1.1045.8955 2 2 2h39c1.1045 0 2-.8955 2-2v-48c0-1.1045-.8955-2-2-2zm-19 35h-9.2s.557-4.1661 1.6142-5.2723c.8478-.887 3.7655-1.9609 4.9087-2.3583.102-.4122.1763-.8093.2276-1.1543-.6577-.7572-1.1499-1.6654-1.285-2.7097-.6664-.1973-.8-1.5215-.8-2.0197 0-.4986.0911-.7681.2778-.8518.0435-.0195.0848-.0186.1267-.0223-.0934-.7712-.3502-3.3882.3441-4.2925.5599-.729 1.6232-1.1657 2.5939-1.4333 1.3976-.3851 1.9407-.1175 2.7383.3102 1.2163-.3097 1.8543.1522 2.3788 1.1003.5523.997.2741 3.5435.1745 4.3101.051.0007.1031.0034.157.0275.1867.0837.2779.3532.2779.8518 0 .4982-.1337 1.8224-.8001 2.0197-.1679 1.0833-.6506 1.9809-1.3019 2.7287.0494.3396.126.729.2363 1.1324 1.1376.3953 4.0672 1.4722 4.917 2.3612 1.0571 1.1062 1.6142 5.2723 1.6142 5.2723z"/></svg>

<?xml version="1.0" encoding="utf-8"?>
<!-- Generator: Adobe Illustrator 17.1.0, SVG Export Plug-In . SVG Version: 6.00 Build 0)  -->
<svg version="1.2" baseProfile="tiny" xmlns="http://www.w3.org/2000/svg" xmlns:xlink="http://www.w3.org/1999/xlink" x="0px"
	 y="0px" width="64px" height="64px" viewBox="0 0 64 64" xml:space="preserve">
<g id="_x36_4px_Boxes">
	<rect fill="none" width="64" height="64"/>
</g>
<g id="Production">
	<path d="M54,7H15c-1.1045,0-2,0.8955-2,2v5.4166l7.1328,2.214C20.458,16.7356,20.3389,17,20.3389,17
		C20.3069,17,16,17.0015,13,17.0015c-1.2578,0.0145-3.3467,0.057-4.1211,0.1826C8.2139,17.293,7,17.4106,7,18.3799v2.8555
		c0,0.9687,1.228,1.1762,1.8936,1.2841C9.6669,22.645,11.7462,22.819,13,22.9177v5.4989l7.125,2.2084
		C20.4502,30.73,20.3389,31,20.3389,31C20.3069,31,16,31.0015,13,31.0015c-1.2578,0.0145-3.3467,0.057-4.1211,0.1826
		C8.2139,31.293,7,31.4106,7,32.3799v2.8555c0,0.9687,1.228,1.1762,1.8936,1.2841C9.6669,36.645,11.7462,36.819,13,36.9177v5.5121
		l7.125,2.203C20.4502,44.7378,20.3389,45,20.3389,45C20.3273,45,16,45.0015,13,45.0015c-1.2578,0.0145-3.3467,0.057-4.1211,0.1826
		C8.2139,45.293,7,45.4106,7,46.3799v2.8555c0,0.9687,1.228,1.1762,1.8936,1.2841C9.6669,50.645,11.7462,50.819,13,50.9177V57
		c0,1.1045,0.8955,2,2,2h39c1.1045,0,2-0.8955,2-2V9C56,7.8955,55.1045,7,54,7z M35,42h-9.2c0,0,0.557-4.1661,1.6142-5.2723
		c0.8478-0.887,3.7655-1.9609,4.9087-2.3583c0.102-0.4122,0.1763-0.8093,0.2276-1.1543c-0.6577-0.7572-1.1499-1.6654-1.285-2.7097
		c-0.6664-0.1973-0.8-1.5215-0.8-2.0197c0-0.4986,0.0911-0.7681,0.2778-0.8518c0.0435-0.0195,0.0848-0.0186,0.1267-0.0223
		c-0.0934-0.7712-0.3502-3.3882,0.3441-4.2925c0.5599-0.729,1.6232-1.1657,2.5939-1.4333c1.3976-0.3851,1.9407-0.1175,2.7383,0.3102
		c1.2163-0.3097,1.8543,0.1522,2.3788,1.1003c0.5523,0.997,0.2741,3.5435,0.1745,4.3101c0.051,0.0007,0.1031,0.0034,0.157,0.0275
		c0.1867,0.0837,0.2779,0.3532,0.2779,0.8518c0,0.4982-0.1337,1.8224-0.8001,2.0197c-0.1679,1.0833-0.6506,1.9809-1.3019,2.7287
		c0.0494,0.3396,0.126,0.729,0.2363,1.1324c1.1376,0.3953,4.0672,1.4722,4.917,2.3612C43.6429,37.8339,44.2,42,44.2,42H35z"/>
</g>
</svg>
